public/icons/google.svg

<svg width="67" height="67" viewBox="0 0 67 67" fill="none" xmlns="http://www.w3.org/2000/svg">
<path d="M8.55365 20.9651C10.8774 16.3408 14.4408 12.4535 18.846 9.73719C23.2511 7.02092 28.3247 5.58265 33.5 5.58301C41.0235 5.58301 47.3439 8.34955 52.1762 12.8553L44.1725 20.8618C41.2776 18.0953 37.5981 16.6855 33.5 16.6855C26.2277 16.6855 20.0721 21.5988 17.8806 28.1955C17.3223 29.8705 17.004 31.6572 17.004 33.4997C17.004 35.3422 17.3223 37.1288 17.8806 38.8038C20.0749 45.4033 26.2277 50.3139 33.5 50.3139C37.2548 50.3139 40.4512 49.3228 42.9526 47.6478C44.4027 46.6931 45.6441 45.4542 46.6018 44.0061C47.5596 42.558 48.2137 40.9307 48.5247 39.2226H33.5V28.4244H59.7919C60.1213 30.2502 60.3 32.1541 60.3 34.1334C60.3 42.6368 57.2571 49.7946 51.9752 54.6521C47.3578 58.9178 41.0375 61.4163 33.5 61.4163C29.8335 61.4178 26.2027 60.6967 22.815 59.2943C19.4273 57.8919 16.3492 55.8356 13.7566 53.243C11.164 50.6504 9.10778 47.5723 7.70536 44.1847C6.30293 40.797 5.58185 37.1662 5.58332 33.4997C5.58332 28.9939 6.6609 24.7338 8.55365 20.9651Z" fill="white"/>
</svg>

<svg xmlns="http://www.w3.org/2000/svg" width="67" height="67" fill="none"><path fill="#fff" d="M8.554 20.965A27.92 27.92 0 0 1 33.5 5.583c7.523 0 13.844 2.767 18.676 7.272l-8.004 8.007c-2.894-2.767-6.574-4.176-10.672-4.176-7.272 0-13.428 4.913-15.62 11.51a16.8 16.8 0 0 0-.876 5.304c0 1.842.318 3.629.877 5.304 2.194 6.6 8.347 11.51 15.619 11.51 3.755 0 6.951-.991 9.453-2.666a12.84 12.84 0 0 0 5.572-8.425H33.5V28.424h26.292c.33 1.826.508 3.73.508 5.71 0 8.503-3.043 15.66-8.325 20.518-4.617 4.266-10.937 6.764-18.475 6.764A27.905 27.905 0 0 1 5.583 33.5c0-4.506 1.078-8.766 2.97-12.535"/></svg>
